X:6
T:Last Night's Fun
R:reel
O:Irish reel
D:Natalie MacMaster, LIVE, 2002
Z:Paul Stewart Cranford (P.S.C.), <http://www.cranfordpub.com>
L:1/8
Q:333
M:C|
K:D
AD (3(FED) A3 B|AD (3(FED) FAdB|AD (3(FED) FABd|\[1(3(efg) Tfe dBAF:|[2(3(efg) Tfe dBA||
B|df ~f2 af ~f2|df ~f2 egfe|df ~f2 af ~f2|(3(efg) Tfe dBAB|
df ~f2 af ~f2|dfaf g2 fg|afbf afeg|Tf2 ed BcdB|]
